X:66
T:Taffy or Irae Corona
Z:Jack Campin - http://www.campin.me.uk
S:Blaikie MS (NLS MS.1578) p20, Blaikie #61
M:6/8
L:1/8
V:1 midi program 1 74
V:2 midi program 1 46 bass middle = d transpose -24
Q:3/8=120
K:A Minor
[V:1] E|EAA GEE|c2c E3  |cBA G2E|cBA GEB|
[V:2] z|a3  e3 |c3  c3  |A3  c3 |f3  g3 |
%
[V:1]   cde d2d|e2A G2 B|cBA GAB|BdB cA|]
[V:2]   c3  g3 |c3  B2^G|A3  e3 |e3  A2|]
W:Transcription (c) Jack Campin 2009, no mirroring or republication without permission

